.local/share/icons/Gruvbox-Plus-Dark/panel/24/crow-translate-tray.svg

<svg xmlns="http://www.w3.org/2000/svg" width="24" height="24" version="1.1">
 <defs>
  <style id="current-color-scheme" type="text/css">
   .ColorScheme-Text { color:#ebdbb2; } .ColorScheme-Highlight { color:#458588; }
  </style>
 </defs>
 <path style="fill:currentColor;opacity:0.3" class="ColorScheme-Text" d="M 12 4 C 7.5817 4 4 7.5817003 4 12 C 4 14.607097 5.2531965 16.916373 7.1835938 18.376953 C 7.218984 18.357321 7.256186 18.340906 7.2910156 18.320312 C 7.8640203 17.980897 8.4135433 17.581978 8.9433594 17.15625 C 7.1832049 16.110481 6 14.195768 6 12 C 6 8.6862753 8.686275 5.9999999 12 6 C 12.725915 6 13.418426 6.1348852 14.0625 6.3710938 C 14.065074 5.8268516 14.039531 5.2830989 13.945312 4.7480469 C 13.998843 4.5617562 14.020397 4.4675407 14.060547 4.28125 C 14.060856 4.279718 14.060242 4.2788547 14.060547 4.2773438 C 13.401947 4.1019152 12.713831 4 12 4 z M 14.177734 4.3066406 C 14.335788 5.0296032 14.391425 5.7626819 14.390625 6.4980469 C 16.51401 7.4220571 18 9.5364714 18 12 C 18 15.3135 15.3135 18 12 18 C 11.031633 18 10.120369 17.764869 9.3105469 17.357422 C 9.3017738 17.364595 9.2939268 17.373712 9.2851562 17.380859 C 8.7061853 17.851947 8.0814138 18.237713 7.4199219 18.552734 C 8.7180365 19.461824 10.294935 20 12 20 C 16.418 20 20 16.418 20 12 C 20 8.3376682 17.536053 5.2559723 14.177734 4.3066406 z"/>
 <path style="fill:currentColor" class="ColorScheme-Text" d="M 14.115234 4.0019531 C 14.096114 4.1117666 14.083487 4.1675146 14.060547 4.28125 C 14.020397 4.4675407 13.998843 4.5617562 13.945312 4.7480469 C 14.102083 5.6383205 14.105561 6.5550154 14.019531 7.4511719 C 13.999891 7.655354 13.971517 7.8591401 13.935547 8.0625 C 13.916821 8.108593 14.308594 8.0996094 14.308594 8.0996094 C 14.338184 7.8884346 14.359641 7.6773836 14.369141 7.46875 C 14.42076 6.3078646 14.415388 5.139307 14.115234 4.0019531 z M 13.916016 8.109375 C 13.534593 8.4478735 13.149281 8.8066955 12.863281 9.2148438 C 12.173678 10.200832 11.734487 11.447038 10.84375 12.298828 C 10.48171 12.643644 10.05987 12.944315 9.6269531 13.208984 C 9.854905 13.242524 10.107984 13.26533 10.335938 13.21875 C 9.8762021 13.509514 9.3617782 13.786143 8.9863281 14.173828 C 8.8005187 14.363943 8.6077972 14.558289 8.4277344 14.755859 C 8.5733172 14.666389 8.7436902 14.564401 8.9199219 14.5625 C 9.2110872 14.5588 9.7695313 14.236328 9.7695312 14.236328 C 9.7695312 14.236328 8.7181107 14.91266 8.2871094 15.332031 C 8.0419176 15.570607 7.7653991 15.798188 7.5546875 16.070312 C 7.365045 16.316323 7.3613281 16.310547 7.3613281 16.310547 C 7.7157069 16.180075 8.0756467 16.04499 8.4472656 15.964844 C 8.2978518 16.018894 8.2255479 16.045377 8.0742188 16.095703 C 7.7447421 16.226175 7.3675251 16.32426 7.0859375 16.488281 C 6.5783137 16.784637 6.0751196 17.545493 5.7226562 18.046875 C 5.5349312 18.311545 5.2255106 18.536469 5.0722656 18.808594 C 4.9841496 18.96516 4.9926009 19.128917 5.0136719 19.169922 C 5.1688323 19.455094 5.9438861 19.696405 6.3691406 19.800781 C 6.8805956 19.923797 7.4185331 19.979498 7.9453125 20 C 8.2575489 19.93477 8.5806795 19.805872 8.8105469 19.585938 C 9.1227834 19.287716 9.5738436 18.999103 9.7539062 18.613281 C 9.8573468 18.395207 10.015772 18.26738 10.021484 18.263672 C 9.7858705 18.653223 9.5277188 19.030809 9.2480469 19.388672 C 9.1139576 19.558285 8.9296875 19.773438 8.9296875 19.773438 C 9.2419239 19.661606 9.5685101 19.478062 9.875 19.427734 C 10.064641 19.396044 10.27434 19.308027 10.419922 19.173828 C 10.575082 19.03031 10.809345 18.973417 10.947266 18.826172 C 11.328462 18.417984 11.585262 17.795879 11.949219 17.367188 C 11.995189 17.313137 12.105168 17.172201 12.189453 17.056641 C 12.256503 16.963451 12.310547 16.884766 12.310547 16.884766 C 12.117076 17.322776 11.923526 17.768395 11.708984 18.193359 C 11.707084 18.197159 11.706978 18.201338 11.705078 18.205078 C 11.639948 18.322503 11.542964 18.436728 11.443359 18.542969 C 11.429939 18.557869 11.417707 18.571017 11.404297 18.585938 C 11.387067 18.604557 11.397058 18.604774 11.423828 18.589844 C 11.812687 18.384818 12.155725 18.072203 12.527344 17.826172 C 12.538834 17.818772 12.550984 17.812241 12.558594 17.806641 C 12.836351 17.646348 13.082144 17.362158 13.287109 17.134766 C 13.480581 16.92042 13.579138 16.790051 13.630859 16.484375 C 13.632759 16.475075 13.632866 16.466351 13.634766 16.457031 C 13.697976 16.015293 13.765511 15.574729 13.859375 15.136719 C 13.878525 15.045389 13.892807 14.967757 13.904297 14.90625 C 13.904297 14.89885 13.906303 14.888269 13.908203 14.880859 C 13.910103 14.865959 13.914116 14.850941 13.916016 14.837891 C 13.917916 14.830491 13.918022 14.823836 13.919922 14.816406 C 13.921822 14.803356 13.923881 14.792523 13.925781 14.783203 L 13.925781 14.78125 C 13.925781 14.77565 13.929741 14.755467 13.931641 14.748047 C 13.935441 14.727547 13.960937 14.654297 13.960938 14.654297 L 13.960938 14.683594 L 13.960938 14.701172 C 13.945566 15.47468 13.820692 16.3079 13.939453 17.068359 C 14.027573 17.631249 14.078125 17.515625 14.078125 17.515625 C 14.129845 16.852086 14.06092 16.045301 14.279297 15.441406 C 14.426795 15.033217 14.663614 14.590264 14.740234 14.150391 C 14.818764 13.699333 14.816178 13.2181 14.804688 12.755859 C 14.789367 12.157556 14.752211 11.555423 14.666016 10.958984 C 14.746466 11.242293 14.863576 11.539313 14.878906 11.830078 C 14.894226 12.10593 14.902546 12.390431 14.910156 12.671875 C 14.975286 12.325196 15.024644 11.955789 14.986328 11.603516 C 14.949888 11.279203 15.012972 10.947628 14.976562 10.628906 C 14.92869 10.211448 14.915188 9.7602863 14.773438 9.3632812 C 14.637432 8.9755957 14.460863 8.5887681 14.357422 8.1992188 C 14.347749 8.1632822 14.323298 8.1341233 14.294922 8.109375 C 14.144653 9.1738211 13.779611 10.257249 13.445312 11.25 C 13.022805 12.506972 12.345615 13.569669 11.708984 14.708984 C 11.123971 15.754173 10.197088 16.637657 9.2851562 17.380859 C 8.4898447 18.027975 7.610407 18.522012 6.6640625 18.878906 C 6.3696442 18.98872 6.0401401 19.027305 5.7285156 19.037109 C 5.4990987 19.043009 5.3357722 19.029297 5.328125 19.029297 C 6.0049047 18.884186 6.6907082 18.675245 7.2910156 18.320312 C 8.9561995 17.333952 10.525019 15.983437 11.501953 14.261719 C 12.12329 13.169467 12.710015 12.096589 13.119141 10.896484 C 13.425082 9.9948886 13.742969 9.057721 13.916016 8.109375 z"/>
</svg>

<svg width="24" height="24" version="1.1" xmlns="http://www.w3.org/2000/svg">
  <defs>
    <style id="current-color-scheme" type="text/css">.ColorScheme-Text { color:#ebdbb2; } .ColorScheme-Highlight { color:#458588; } .ColorScheme-NeutralText { color:#fe8019; } .ColorScheme-PositiveText { color:#689d6a; } .ColorScheme-NegativeText { color:#fb4934; }</style>
  </defs>
  <path class="ColorScheme-Text" d="m12 4c-4.418 0-8 3.582-8 8 0 2.607 1.253 4.916 3.184 6.377 0.0354-0.02 0.0726-0.036 0.1074-0.057 0.573-0.339 1.122-0.738 1.652-1.164-1.76-1.046-2.943-2.96-2.943-5.156 0-3.314 2.686-6 6-6 0.726 0 1.418 0.1349 2.063 0.3711 2e-3 -0.5443-0.023-1.088-0.118-1.623 0.054-0.1863 0.075-0.2805 0.116-0.4668v-0.0039c-0.659-0.1754-1.347-0.2773-2.061-0.2773zm2.178 0.3066c0.158 0.723 0.213 1.456 0.213 2.191 2.123 0.924 3.609 3.038 3.609 5.502 0 3.313-2.686 6-6 6-0.968 0-1.88-0.235-2.69-0.643-0.0087 8e-3 -0.0166 0.017-0.0253 0.024-0.579 0.471-1.204 0.857-1.865 1.172 1.298 0.909 2.875 1.447 4.58 1.447 4.418 0 8-3.582 8-8 0-3.662-2.464-6.744-5.822-7.693z" fill="currentColor" opacity=".3"/>
  <path class="ColorScheme-Text" d="m14.12 4.002s-0.032 0.1656-0.054 0.2793c-0.041 0.1863-0.116 0.4668-0.116 0.4668 0.157 0.8903 0.161 1.807 0.075 2.703l-0.084 0.6114c-0.019 0.0461 0.373 0.0371 0.373 0.0371l0.06-0.6309c0.052-1.161 0.046-2.329-0.254-3.467zm-0.199 4.107c-0.381 0.3385-0.767 0.6974-1.053 1.106-0.689 0.986-1.129 2.232-2.019 3.084-0.362 0.345-1.217 0.91-1.217 0.91 0.2279 0.033 0.481 0.056 0.709 0.01-0.4598 0.291-0.9742 0.567-1.35 0.955 0 0-0.3785 0.384-0.5586 0.582 0.1456-0.09 0.316-0.192 0.4922-0.193 0.2912-4e-3 0.8496-0.327 0.8496-0.327s-1.051 0.677-1.482 1.096c0 0-0.5217 0.466-0.7324 0.738l-0.1934 0.241c0.3544-0.131 0.7143-0.266 1.086-0.346l-0.3731 0.131c-0.3295 0.13-0.7067 0.228-0.9883 0.392-0.5076 0.297-1.011 1.057-1.363 1.559-0.1878 0.265-0.4972 0.489-0.6504 0.762-0.0882 0.156-0.0797 0.32-0.0586 0.361 0.1551 0.285 0.9302 0.526 1.355 0.631 0.5115 0.123 1.049 0.178 1.576 0.199 0.3122-0.065 0.6354-0.194 0.8652-0.414 0.3123-0.298 0.7633-0.587 0.9434-0.973 0.1034-0.218 0.2621-0.346 0.2681-0.349-0.2361 0.389-0.4943 0.767-0.774 1.125-0.134 0.169-0.3183 0.384-0.3183 0.384 0.3122-0.111 0.6388-0.295 0.9453-0.345 0.19-0.032 0.399-0.12 0.545-0.254 0.155-0.144 0.389-0.201 0.527-0.348 0.381-0.408 0.638-1.03 1.002-1.459l0.24-0.31 0.122-0.172-0.602 1.308-4e-3 0.012c-0.065 0.118-0.162 0.232-0.262 0.338l-0.039 0.043 0.02 4e-3c0.389-0.205 0.732-0.518 1.103-0.764l0.032-0.019c0.277-0.161 0.523-0.445 0.728-0.672 0.194-0.215 0.292-0.345 0.344-0.651l4e-3 -0.027 0.224-1.32 0.073-0.389 0.029-0.094v0.047c-0.015 0.774-0.14 1.607-0.021 2.367 0.088 0.563 0.138 0.448 0.138 0.448 0.052-0.664-0.017-1.471 0.201-2.075 0.148-0.408 0.385-0.851 0.461-1.291 0.079-0.451 0.076-0.932 0.065-1.394-0.016-0.598-0.053-1.201-0.139-1.797 0.081 0.283 0.198 0.58 0.213 0.871l0.031 0.842c0.065-0.347 0.115-0.716 0.076-1.069-0.036-0.324 0.027-0.655-9e-3 -0.974 0 0-0.062-0.869-0.204-1.266-0.136-0.3873-0.312-0.7742-0.416-1.164l-0.062-0.0899c-0.15 1.065-0.515 2.148-0.85 3.141-0.422 1.257-1.099 2.32-1.736 3.459-0.585 1.045-1.512 1.929-2.424 2.672-0.7953 0.647-1.675 1.141-2.621 1.498-0.2944 0.11-0.6239 0.148-0.9356 0.158-0.2294 6e-3 -0.4004-8e-3 -0.4004-8e-3 0.6768-0.145 1.363-0.354 1.963-0.709 1.665-0.986 3.234-2.337 4.211-4.058 0.621-1.093 1.208-2.165 1.617-3.365 0.306-0.902 0.624-1.839 0.797-2.788z" fill="currentColor"/>
</svg>
